images/jobs.svg

<svg enable-background="new 0 0 512 512" height="512" viewBox="0 0 512 512" width="512" xmlns="http://www.w3.org/2000/svg"><g fill="#a2abbd"><path d="m488.727 279.273c-6.982 0-11.636 4.655-11.636 11.636v151.273c0 6.982-4.655 11.636-11.636 11.636h-418.91c-6.982 0-11.636-4.655-11.636-11.636v-151.273c0-6.982-4.655-11.636-11.636-11.636s-11.636 4.655-11.636 11.636v151.273c0 19.782 15.127 34.909 34.909 34.909h418.909c19.782 0 34.909-15.127 34.909-34.909v-151.273c0-6.982-4.655-11.636-11.637-11.636z"/><path d="m477.091 116.364h-442.182c-19.782 0-34.909 15.127-34.909 34.909v74.473c0 16.29 11.636 30.254 26.764 33.745l182.691 40.727v37.236c0 6.982 4.655 11.636 11.636 11.636h69.818c6.982 0 11.636-4.655 11.636-11.636v-37.236l182.691-40.727c15.128-3.491 26.764-17.455 26.764-33.746v-74.473c0-19.781-15.127-34.908-34.909-34.908zm-197.818 209.454h-46.545v-46.545h46.545zm209.454-100.073c0 5.818-3.491 10.473-9.309 11.636l-176.873 39.564v-9.309c0-6.982-4.655-11.636-11.636-11.636h-69.818c-6.982 0-11.636 4.655-11.636 11.636v9.309l-176.873-39.563c-5.818-1.164-9.309-5.818-9.309-11.636v-74.473c0-6.982 4.655-11.636 11.636-11.636h442.182c6.982 0 11.636 4.655 11.636 11.636z"/><path d="m314.182 34.909h-116.364c-19.782 0-34.909 15.127-34.909 34.909v11.636c0 6.982 4.655 11.636 11.636 11.636s11.636-4.655 11.636-11.636v-11.636c0-6.982 4.655-11.636 11.636-11.636h116.364c6.982 0 11.636 4.655 11.636 11.636v11.636c0 6.982 4.655 11.636 11.636 11.636 6.982 0 11.636-4.655 11.636-11.636v-11.636c.002-19.782-15.125-34.909-34.907-34.909z"/></g></svg>

<?xml version="1.0" encoding="iso-8859-1"?>
<!-- Generator: Adobe Illustrator 19.0.0, SVG Export Plug-In . SVG Version: 6.00 Build 0)  -->
<svg xmlns="http://www.w3.org/2000/svg" xmlns:xlink="http://www.w3.org/1999/xlink" version="1.1" id="Capa_1" x="0px" y="0px" viewBox="0 0 512 512" style="enable-background:new 0 0 512 512;" xml:space="preserve" width="512px" height="512px">
<g>
	<g>
		<path d="M488.727,279.273c-6.982,0-11.636,4.655-11.636,11.636v151.273c0,6.982-4.655,11.636-11.636,11.636H46.545    c-6.982,0-11.636-4.655-11.636-11.636V290.909c0-6.982-4.655-11.636-11.636-11.636s-11.636,4.655-11.636,11.636v151.273    c0,19.782,15.127,34.909,34.909,34.909h418.909c19.782,0,34.909-15.127,34.909-34.909V290.909    C500.364,283.927,495.709,279.273,488.727,279.273z" fill="#a2abbd"/>
	</g>
</g>
<g>
	<g>
		<path d="M477.091,116.364H34.909C15.127,116.364,0,131.491,0,151.273v74.473C0,242.036,11.636,256,26.764,259.491l182.691,40.727    v37.236c0,6.982,4.655,11.636,11.636,11.636h69.818c6.982,0,11.636-4.655,11.636-11.636v-37.236l182.691-40.727    C500.364,256,512,242.036,512,225.745v-74.473C512,131.491,496.873,116.364,477.091,116.364z M279.273,325.818h-46.545v-46.545    h46.545V325.818z M488.727,225.745c0,5.818-3.491,10.473-9.309,11.636l-176.873,39.564v-9.309c0-6.982-4.655-11.636-11.636-11.636    h-69.818c-6.982,0-11.636,4.655-11.636,11.636v9.309L32.582,237.382c-5.818-1.164-9.309-5.818-9.309-11.636v-74.473    c0-6.982,4.655-11.636,11.636-11.636h442.182c6.982,0,11.636,4.655,11.636,11.636V225.745z" fill="#a2abbd"/>
	</g>
</g>
<g>
	<g>
		<path d="M314.182,34.909H197.818c-19.782,0-34.909,15.127-34.909,34.909v11.636c0,6.982,4.655,11.636,11.636,11.636    s11.636-4.655,11.636-11.636V69.818c0-6.982,4.655-11.636,11.636-11.636h116.364c6.982,0,11.636,4.655,11.636,11.636v11.636    c0,6.982,4.655,11.636,11.636,11.636c6.982,0,11.636-4.655,11.636-11.636V69.818C349.091,50.036,333.964,34.909,314.182,34.909z" fill="#a2abbd"/>
	</g>
</g>
<g>
</g>
<g>
</g>
<g>
</g>
<g>
</g>
<g>
</g>
<g>
</g>
<g>
</g>
<g>
</g>
<g>
</g>
<g>
</g>
<g>
</g>
<g>
</g>
<g>
</g>
<g>
</g>
<g>
</g>
</svg>
